<?xml version="1.0" encoding="UTF-8"?>
<map version="1.10" tiledversion="1.10.2" orientation="orthogonal" renderorder="right-down" width="10" height="8" tilewidth="32" tileheight="32" infinite="0" nextlayerid="2" nextobjectid="1">
  <tileset firstgid="1" name="tileset" tilewidth="32" tileheight="32" tilecount="5" columns="5">
    <image source="tileset.png" width="160" height="32"/>
  </tileset>
  <layer id="1" name="terrain" width="10" height="8">
    <data encoding="csv">
      5,5,5,5,5,5,5,5,5,5,
      5,1,4,1,3,4,1,2,4,5,
      5,4,1,3,4,1,1,2,3,5,
      5,1,3,4,1,1,4,3,1,5,
      5,3,4,1,1,4,3,2,4,5,
      5,4,1,1,4,3,1,2,1,5,
      5,1,1,4,3,1,4,2,1,5,
      5,5,5,5,5,5,5,5,5,5
    </data>
  </layer>
</map>
